assets/si/si-trendmicro.svg

<svg xmlns="http://www.w3.org/2000/svg" width="100%" height="100%" viewBox="-3.36 -3.36 30.72 30.72"><path d="M12 0C5.38 0 0 5.37 0 12c0 2.45.734 4.72 2 6.62-.5-1.17-.42-2.68.19-4.33l.01-.04.05-.13.05-.12.02-.05c.22-.55.5-1.12.84-1.69.05-.1.09-.19.14-.26H1.86l.35-.79c1.19-.33 3.17-.99 5.06-2.82h1.05l-1.29 2.75H9.1l-.38.82H6.66s-.97 1.94-1.3 3.32c-.25 1.54 0 2.72 1.38 3.13.85.26 1.92.2 3.07-.12 2.69-.84 5.53-2.67 7.62-5.11 3.44-3.99 3.51-8.08.15-9.13-2.15-.67-5.19.08-8 1.75 3.5-2.26 7.36-3.3 10.01-2.49.5.15.94.37 1.3.63A11.97 11.97 0 0012 0m10.17 5.63c.83 2.18-.2 5.44-2.97 8.66-4.16 4.84-10.73 7.76-14.7 6.54a4.46 4.46 0 01-1.26-.62A11.96 11.96 0 0012 24c6.63 0 12-5.37 12-12 0-2.34-.67-4.5-1.83-6.37z"/></svg>

<svg xmlns="http://www.w3.org/2000/svg" width="100%" height="100%" viewBox="-3.36 -3.36 30.72 30.72"><path d="M12 0C5.38 0 0 5.37 0 12C0 14.45 .734 16.72 2 18.62C1.5 17.45 1.58 15.94 2.19 14.29L2.2 14.25L2.25 14.12L2.3 14L2.32 13.95C2.54 13.4 2.82 12.83 3.16 12.26C3.21 12.16 3.25 12.07 3.3 12L1.86 12L2.21 11.21C3.4 10.88 5.38 10.22 7.27 8.39L7.32 8.39H8.32L7.03 11.14L9.1 11.14L8.72 11.96L6.66 11.96S5.69 13.9 5.36 15.28C5.11 16.82 5.36 18 6.74 18.41C7.59 18.67 8.66 18.61 9.81 18.29C12.5 17.45 15.34 15.62 17.43 13.18C20.87 9.19 20.94 5.1 17.58 4.05C15.43 3.38 12.39 4.13 9.58 5.8C13.08 3.54 16.94 2.5 19.59 3.31C20.09 3.46 20.53 3.68 20.89 3.94A11.97 11.97 0 0 0 12 0M22.17 5.63C23 7.81 21.97 11.07 19.2 14.29C15.04 19.13 8.47 22.05 4.5 20.83A4.46 4.46 0 0 1 3.24 20.21A11.96 11.96 0 0 0 12 24C18.63 24 24 18.63 24 12C24 9.66 23.33 7.5 22.17 5.63Z"/></svg>
